X: 3276
T: Belfast, The
R: hornpipe
M: 4/4
K: Dmajor
a3g||fadf AdFA|DFAd fefa|(3gbg f2 (3ege de|cdBc A2 ag|
fadf AdFA|DFAd fefa|gfed cABc|1 d2 f2 d2 ag:|2 d2 F2 D3 G||
GFGA BABd|fgfe dcBc|A2f2 fef2|G2E2 ED E>A|
GFGA BABd|fgfe dcBc|Afed cABc|1 d2 F2 D3 A:|2 d2 f2 d2 ag||
fAEA (3ded c2|(3BcB AB G2 ba|gBfB efed|cdBc A2 ag|
(3faf e2 (3ded cd|Bc AB (3GBG FG|EFED c2 (3ABc|d2 f2 d2 ag|
fAEA (3ded cd|Bc (3ABA G2 ba|gBfB efed|cdBc A2 ag|
(3fgf (3efe (3ded (3cdc|(3BcB (3ABA (3GAG FG|EFED c2 (3ABc|d2 f2 d2 ag||

